src/assets/icons/letters,simple,serif-d.svg

<svg width="48" height="48" viewBox="0 0 48 48" fill="none" xmlns="http://www.w3.org/2000/svg">
<rect opacity="0.2" x="5" y="5" width="38" height="38" rx="4" fill="black"/>
<path d="M11.2658 36V34.8C11.9258 34.78 12.4558 34.73 12.8558 34.65C13.2758 34.55 13.5958 34.38 13.8158 34.14C14.0558 33.88 14.2158 33.54 14.2958 33.12C14.3758 32.68 14.4158 32.1 14.4158 31.38V17.52C14.4158 16.82 14.3858 16.26 14.3258 15.84C14.2658 15.4 14.1358 15.06 13.9358 14.82C13.7358 14.56 13.4558 14.39 13.0958 14.31C12.7558 14.21 12.3058 14.14 11.7458 14.1V12.9H23.1458C25.0658 12.9 26.8358 13.2 28.4558 13.8C30.0758 14.4 31.4758 15.23 32.6558 16.29C33.8358 17.35 34.7558 18.61 35.4158 20.07C36.0758 21.53 36.4058 23.12 36.4058 24.84C36.4058 26.48 36.0958 27.99 35.4758 29.37C34.8558 30.73 33.9858 31.9 32.8658 32.88C31.7658 33.86 30.4358 34.63 28.8758 35.19C27.3358 35.73 25.6358 36 23.7758 36H11.2658ZM19.3358 14.73C18.9958 14.73 18.8258 14.9 18.8258 15.24V30.75C18.8258 31.91 19.1858 32.77 19.9058 33.33C20.6258 33.89 21.7358 34.17 23.2358 34.17C25.8558 34.17 27.8658 33.38 29.2658 31.8C30.6858 30.22 31.3958 27.92 31.3958 24.9C31.3958 23.3 31.2058 21.87 30.8258 20.61C30.4458 19.35 29.8958 18.29 29.1758 17.43C28.4558 16.55 27.5758 15.88 26.5358 15.42C25.5158 14.96 24.3658 14.73 23.0858 14.73H19.3358Z" fill="black"/>
</svg>

<svg xmlns="http://www.w3.org/2000/svg" width="48" height="48" fill="none" viewBox="0 0 48 48">
  <rect width="38" height="38" x="5" y="5" fill="#000" opacity=".2" rx="4"/>
  <path fill="#000" d="M11.266 36v-1.2c.66-.02 1.19-.07 1.59-.15.42-.1.74-.27.96-.51.24-.26.4-.6.48-1.02.08-.44.12-1.02.12-1.74V17.52c0-.7-.03-1.26-.09-1.68-.06-.44-.19-.78-.39-1.02-.2-.26-.48-.43-.84-.51-.34-.1-.79-.17-1.35-.21v-1.2h11.4c1.92 0 3.69.3 5.31.9 1.62.6 3.02 1.43 4.2 2.49 1.18 1.06 2.1 2.32 2.76 3.78.66 1.46.99 3.05.99 4.77 0 1.64-.31 3.15-.93 4.53-.62 1.36-1.49 2.53-2.61 3.51-1.1.98-2.43 1.75-3.99 2.31-1.54.54-3.24.81-5.1.81h-12.51zm8.07-21.27c-.34 0-.51.17-.51.51v15.51c0 1.16.36 2.02 1.08 2.58.72.56 1.83.84 3.33.84 2.62 0 4.63-.79 6.03-2.37 1.42-1.58 2.13-3.88 2.13-6.9 0-1.6-.19-3.03-.57-4.29-.38-1.26-.93-2.32-1.65-3.18a7.05 7.05 0 00-2.64-2.01c-1.02-.46-2.17-.69-3.45-.69h-3.75z"/>
</svg>
